packages/kaspersky-hexa-ui-icons/src/iconsSVGs/24/Android.svg

<svg width="24" height="24" viewBox="0 0 24 24" fill="none" xmlns="http://www.w3.org/2000/svg">
<path d="M10 13.5C10 14.3284 9.32843 15 8.5 15C7.67157 15 7 14.3284 7 13.5C7 12.6716 7.67157 12 8.5 12C9.32843 12 10 12.6716 10 13.5Z" fill="black"/>
<path d="M15.5 15C16.3284 15 17 14.3284 17 13.5C17 12.6716 16.3284 12 15.5 12C14.6716 12 14 12.6716 14 13.5C14 14.3284 14.6716 15 15.5 15Z" fill="black"/>
<path fill-rule="evenodd" clip-rule="evenodd" d="M2.29289 4.29289C2.68342 3.90237 3.31658 3.90237 3.70711 4.29289L6.23924 6.82503C7.86773 5.67535 9.855 5 12 5C14.145 5 16.1323 5.67535 17.7608 6.82503L20.2929 4.29289C20.6834 3.90237 21.3166 3.90237 21.7071 4.29289C22.0976 4.68342 22.0976 5.31658 21.7071 5.70711L19.2752 8.13905C20.9645 9.92972 22 12.3439 22 15V18C22 19.1046 21.1046 20 20 20H4C2.89543 20 2 19.1046 2 18V15C2 12.3439 3.03551 9.92972 4.72484 8.13905L2.29289 5.70711C1.90237 5.31658 1.90237 4.68342 2.29289 4.29289ZM12 7C7.58172 7 4 10.5817 4 15V18L20 18V15C20 10.5817 16.4183 7 12 7Z" fill="black"/>
</svg>

<svg xmlns="http://www.w3.org/2000/svg" width="24" height="24" fill="none" viewBox="0 0 24 24"><path fill="#000" d="M10 13.5c0 .828-.672 1.5-1.5 1.5S7 14.328 7 13.5 7.672 12 8.5 12s1.5.672 1.5 1.5m5.5 1.5c.828 0 1.5-.672 1.5-1.5s-.672-1.5-1.5-1.5-1.5.672-1.5 1.5.672 1.5 1.5 1.5"/><path fill="#000" fill-rule="evenodd" d="M2.2929 4.2929c.3905-.3905 1.0237-.3905 1.4142 0L6.2392 6.825C7.8677 5.6753 9.855 5 12 5s4.1323.6753 5.7608 1.825l2.5321-2.5321c.3905-.3905 1.0237-.3905 1.4142 0s.3905 1.0237 0 1.4142l-2.4319 2.432C20.9645 9.9296 22 12.3439 22 15v3c0 1.1046-.8954 2-2 2H4c-1.1046 0-2-.8954-2-2v-3c0-2.6561 1.0355-5.0703 2.7248-6.861l-2.432-2.4319c-.3904-.3905-.3904-1.0237 0-1.4142M12 7c-4.4183 0-8 3.5817-8 8v3h16v-3c0-4.4183-3.5817-8-8-8" clip-rule="evenodd"/></svg>
